assets/images/allinone.svg

<svg width="88" height="89" viewBox="0 0 88 89" fill="none" xmlns="http://www.w3.org/2000/svg">
<g filter="url(#filter0_d_14_197)">
<rect x="4" y="2.5" width="80" height="80" rx="4" fill="white"/>
<g clip-path="url(#clip0_14_197)">
<path fill-rule="evenodd" clip-rule="evenodd" d="M44.0901 72.0891C60.4317 72.0891 73.6791 58.8416 73.6791 42.5C73.6791 26.1584 60.4317 12.911 44.0901 12.911C27.7486 12.911 14.5011 26.1584 14.5011 42.5C14.5011 58.8416 27.7486 72.0891 44.0901 72.0891ZM39.3786 23.7405C38.9778 23.1297 38.2353 22.844 37.5545 23.0845C36.7791 23.3585 36.0206 23.6807 35.2837 24.0491C34.6367 24.3727 34.3122 25.1115 34.4546 25.8321L34.962 28.3996C35.0926 29.0605 34.8229 29.7311 34.3109 30.1572C33.5017 30.8306 32.7548 31.592 32.0855 32.4346C31.6695 32.9583 31.0131 33.236 30.3651 33.105L27.8482 32.5966C27.1411 32.4537 26.4179 32.7879 26.1034 33.4497C25.9258 33.8236 25.758 34.2053 25.6008 34.5946C25.4436 34.9839 25.299 35.3753 25.1668 35.7684C24.9331 36.4641 25.2155 37.2213 25.8158 37.6282L27.9529 39.0771C28.5032 39.4501 28.7773 40.119 28.7108 40.7898C28.6038 41.8689 28.6081 42.9462 28.7174 44.0058C28.7864 44.6762 28.5146 45.3461 27.9656 45.7211L25.8327 47.1782C25.2341 47.5871 24.9541 48.3448 25.1899 49.0395C25.4583 49.8308 25.7741 50.6047 26.1351 51.3567C26.4522 52.0169 27.1763 52.348 27.8825 52.2027L30.3987 51.685C31.0463 51.5517 31.7036 51.8269 32.1211 52.3493C32.781 53.1749 33.5271 53.9372 34.3529 54.6201C34.8661 55.0446 35.1383 55.7143 35.0099 56.3757L34.5116 58.944C34.3717 59.6654 34.6992 60.4034 35.3477 60.7243C35.7141 60.9056 36.0882 61.0767 36.4697 61.2371C36.8512 61.3976 37.2348 61.5451 37.62 61.6799C38.7469 62.0743 40.3241 60.6626 41.4901 59.6189C42.0651 59.1042 42.4198 58.3758 42.4236 57.5959C42.4236 57.5918 42.4236 57.5876 42.4236 57.5834V53.2886C42.4236 53.2432 42.4253 53.198 42.4288 53.1534C38.9847 52.3132 36.4242 49.1516 36.4242 45.3798V40.8193C36.4242 40.4727 36.6995 40.1917 37.0393 40.1917H39.1724V35.7047C39.1724 35.0852 39.6646 34.5829 40.2717 34.5829C40.8789 34.5829 41.371 35.0852 41.371 35.7047V40.1917H47.1425V35.7047C47.1425 35.0852 47.6346 34.5829 48.2418 34.5829C48.8489 34.5829 49.3411 35.0852 49.3411 35.7047V40.1917H51.4743C51.814 40.1917 52.0893 40.4727 52.0893 40.8193V45.3798C52.0893 49.2708 49.3644 52.5125 45.7555 53.2261C45.7562 53.2468 45.7566 53.2677 45.7566 53.2886V57.5649C45.7566 58.3599 46.1219 59.1015 46.7142 59.618C47.901 60.6531 49.5054 62.0523 50.6257 61.6566C51.4011 61.3825 52.1596 61.0603 52.8965 60.6919C53.5435 60.3684 53.868 59.6295 53.7256 58.909L53.2182 56.3414C53.0876 55.6806 53.3573 55.0098 53.8693 54.5838C54.6785 53.9104 55.4254 53.149 56.0947 52.3064C56.5107 51.7827 57.167 51.5051 57.8151 51.636L60.332 52.1445C61.0391 52.2873 61.7623 51.9531 62.0768 51.2914C62.2545 50.9175 62.4221 50.5358 62.5794 50.1464C62.7366 49.7572 62.8812 49.3658 63.0133 48.9727C63.2471 48.277 62.9647 47.5198 62.3644 47.1129L60.2272 45.664C59.6769 45.2909 59.4029 44.622 59.4694 43.9513C59.5763 42.8721 59.572 41.7948 59.4628 40.7353C59.3938 40.0649 59.6655 39.395 60.2146 39.02L62.3475 37.5629C62.9461 37.1539 63.2261 36.3962 62.9903 35.7016C62.7219 34.9103 62.4061 34.1363 62.045 33.3844C61.728 32.7242 61.0039 32.3931 60.2977 32.5384L57.7816 33.0561C57.1339 33.1894 56.4766 32.9142 56.0591 32.3918C55.3992 31.5662 54.6531 30.8039 53.8273 30.121C53.314 29.6965 53.0419 29.0268 53.1703 28.3654L53.6686 25.7971C53.8085 25.0756 53.481 24.3376 52.8325 24.0168C52.4661 23.8355 52.092 23.6644 51.7105 23.504C51.329 23.3434 50.9454 23.1959 50.5602 23.0611C49.8785 22.8225 49.1364 23.1108 48.7375 23.7233L47.3177 25.904C46.9521 26.4655 46.2965 26.7452 45.6392 26.6773C44.5817 26.5682 43.5259 26.5726 42.4875 26.684C41.8305 26.7545 41.1741 26.4772 40.8065 25.917L39.3786 23.7405Z" fill="#005AE0"/>
</g>
</g>
<defs>
<filter id="filter0_d_14_197" x="0" y="0.5" width="88" height="88" filterUnits="userSpaceOnUse" color-interpolation-filters="sRGB">
<feFlood flood-opacity="0" result="BackgroundImageFix"/>
<feColorMatrix in="SourceAlpha" type="matrix" values="0 0 0 0 0 0 0 0 0 0 0 0 0 0 0 0 0 0 127 0" result="hardAlpha"/>
<feOffset dy="2"/>
<feGaussianBlur stdDeviation="2"/>
<feComposite in2="hardAlpha" operator="out"/>
<feColorMatrix type="matrix" values="0 0 0 0 0 0 0 0 0 0 0 0 0 0 0 0 0 0 0.07 0"/>
<feBlend mode="normal" in2="BackgroundImageFix" result="effect1_dropShadow_14_197"/>
<feBlend mode="normal" in="SourceGraphic" in2="effect1_dropShadow_14_197" result="shape"/>
</filter>
<clipPath id="clip0_14_197">
<rect width="60" height="59.1781" fill="white" transform="translate(14 12.911)"/>
</clipPath>
</defs>
</svg>

<svg width="88" height="89" fill="none" xmlns="http://www.w3.org/2000/svg"><g filter="url(#a)"><rect x="4" y="2.5" width="80" height="80" rx="4" fill="#fff"/><g clip-path="url(#b)"><path fill-rule="evenodd" clip-rule="evenodd" d="M44.09 72.09c16.342 0 29.59-13.248 29.59-29.59S60.431 12.911 44.09 12.911 14.501 26.158 14.501 42.5s13.248 29.59 29.59 29.59Zm-4.71-48.35c-.401-.61-1.144-.896-1.825-.655-.775.273-1.533.596-2.27.964-.647.324-.972 1.063-.83 1.783l.508 2.568c.13.66-.14 1.331-.651 1.757a15.521 15.521 0 0 0-2.225 2.278c-.416.523-1.073.801-1.72.67l-2.518-.508a1.572 1.572 0 0 0-1.745.853 20.96 20.96 0 0 0-.936 2.318c-.234.696.048 1.453.649 1.86l2.137 1.45c.55.372.824 1.041.758 1.712a15.976 15.976 0 0 0 .006 3.216c.07.67-.202 1.34-.751 1.715l-2.133 1.457c-.599.41-.879 1.167-.643 1.861.268.792.584 1.566.945 2.318.317.66 1.041.991 1.747.846l2.517-.518c.647-.133 1.305.142 1.722.664a15.5 15.5 0 0 0 2.232 2.271c.513.425.785 1.094.657 1.756l-.498 2.568c-.14.721.187 1.46.836 1.78a20.067 20.067 0 0 0 2.272.956c1.127.394 2.704-1.017 3.87-2.061.575-.515.93-1.243.934-2.023v-4.307c0-.046.001-.091.005-.136-3.444-.84-6.005-4.001-6.005-7.773v-4.56c0-.347.276-.628.615-.628h2.133v-4.487c0-.62.493-1.122 1.1-1.122a1.11 1.11 0 0 1 1.099 1.122v4.487h5.771v-4.487c0-.62.493-1.122 1.1-1.122.607 0 1.1.502 1.1 1.122v4.487h2.132c.34 0 .615.28.615.627v4.56c0 3.892-2.725 7.134-6.334 7.847l.002.063v4.276c0 .795.365 1.537.957 2.053 1.187 1.035 2.791 2.434 3.912 2.039a19.942 19.942 0 0 0 2.27-.965c.648-.324.972-1.063.83-1.783l-.508-2.568c-.13-.66.14-1.331.651-1.757a15.521 15.521 0 0 0 2.226-2.278c.416-.523 1.072-.8 1.72-.67l2.517.508a1.572 1.572 0 0 0 1.745-.853 20.928 20.928 0 0 0 .936-2.318c.234-.696-.048-1.453-.649-1.86l-2.137-1.449c-.55-.373-.824-1.042-.758-1.713a15.99 15.99 0 0 0-.006-3.216c-.07-.67.203-1.34.752-1.715l2.132-1.457c.6-.41.88-1.167.643-1.861a20.747 20.747 0 0 0-.945-2.318 1.572 1.572 0 0 0-1.747-.846l-2.516.518c-.648.133-1.305-.142-1.723-.664a15.517 15.517 0 0 0-2.232-2.271c-.513-.424-.785-1.094-.657-1.756l.499-2.568c.14-.721-.188-1.46-.836-1.78a20.067 20.067 0 0 0-2.273-.956c-.681-.238-1.424.05-1.823.662l-1.42 2.181c-.365.561-1.02.841-1.678.773a15.055 15.055 0 0 0-3.152.007c-.657.07-1.313-.207-1.68-.767L39.38 23.74Z" fill="#005AE0"/></g></g><defs><clipPath id="b"><path fill="#fff" transform="translate(14 12.911)" d="M0 0h60v59.178H0z"/></clipPath><filter id="a" x="0" y=".5" width="88" height="88" filterUnits="userSpaceOnUse" color-interpolation-filters="sRGB"><feFlood flood-opacity="0" result="BackgroundImageFix"/><feColorMatrix in="SourceAlpha" values="0 0 0 0 0 0 0 0 0 0 0 0 0 0 0 0 0 0 127 0" result="hardAlpha"/><feOffset dy="2"/><feGaussianBlur stdDeviation="2"/><feComposite in2="hardAlpha" operator="out"/><feColorMatrix values="0 0 0 0 0 0 0 0 0 0 0 0 0 0 0 0 0 0 0.07 0"/><feBlend in2="BackgroundImageFix" result="effect1_dropShadow_14_197"/><feBlend in="SourceGraphic" in2="effect1_dropShadow_14_197" result="shape"/></filter></defs></svg>
